!!! OTL: Berkowitz320
!!! Chapter: 1
!!! Section: III
!!! Page: 77
!!! Mode: 
!!! Encoder: DJB
**kern
*staff1
*I"Piano
=1-
*clefG2
*k[f#c#g#]
*A:
*met(c)
*M4/4
8B/L
8a/
8g#/
8e/J
4A/
8r
8d/
=2
8e/L
8dd/
8cc#/
8a/J
4.d/
8e/
=3
8dd/L
8e/
8cc#/
[8d/J
8d/L]
8b/J
4e/
=4
8a/L
8B/
8c#/
8e/J
4.cc#\
8dd\
=5
4.e/
8a/
8dd\L
8cc#\J
4d/
=6
2b\
2r
=7
!!linebreak:original
8cc#/L
8e/
8d/
8b/J
4r
8r
8a/
=8
4d/
4r
8r
8e/L
8a/
8e/J
=9
8B/L
8g#/J
4r
2r
=10
4B/
4a/
4g#/
4e/
=11
2r
2cc#\
==
*-
